X: 1
T:The Road to Rawdon
M:C
L:1/8
Q:80
C:Robert MacNeil
S:March
K:HP
[| e|
{g}A2{GdGe}A3/2{d}c/2{gef}e2{gcd}ce|
a2((3gaf){gef}e2{gcd}cB|
{g}A2{GdGe}A{d}c{g}c/2e3/2{g}f3/2e/2|  !
{Gdc}d2{gcd}c{e}A{gBd}B2{gde}d3/2c/2{g}A2{g}B{GdG}c{g}e3/2f/2{gef}e{g}c|

{ag}a3/2g/2{a}fa{fg}f/2e3/2{gcd}ce|
{gde}d3/2c/2{g}df{gef}e3/2c/2{g}B{d}c|  !
{g}A4{GAG}A2|] [|
{gcd}ce|
{ag}a2((3gaf){g}e3/2f/2{gef}ec|  !
{g}A2{GdGe}A{d}c{gef}e2{gcd}ce|
{g}((3f/2a3/2gaf){g}e3/2f/2{gcd}c{e}A|
{g}B2{GdGe}B3/2{d}c/2{gBd}B2{gde}d3/2c/2{ag}a2((3gaf){g}e3/2f/2{gef}ec|
 !
{g}A2{GdGe}A{d}c{gef}e2{gcd}ce|
{gde}d3/2c/2{g}df{gef}e3/2c/2{g}B{d}c|
{g}A4{GAG}A2|]  !
